X: 22860
T: Lark In The Morning, The
R: jig
M: 6/8
K: Dmajor
|:AF/G/A AF/G/A|BF/G/B BdB|AF/G/A DFA|g/f/ed BdB|
AF/G/A DFA|B3 BAB|de/f/g afe|fdB BAB:|
|:def a3|baf afe|de/f/g afe|fdB BdB|
de/f/g a3|baf a2f|g3 f3|edB BAB:|
|:d2f fef|fef fef|d2f fef|edB BAB|
d2f fef|fef def|g3 f3|edB BdB:|
|:Add fdd|edd fdB|Add faf|edB BAB|
Add fdd|edB def|g3 f3|edB BdB:|

